X: 1976
T: Yağmur Yağar Taş Üstüne
C: (Anonim)
O: Turkey
F: http://compmusic.upf.edu/node/140
N: huseyni--turku--devrituran--yagmur_yagar--
N: makam= huseyni
N: form= turku
N: usul= devrituran = 7/16
M: 7/16
L: 1/16
K: C _2/4B ^3/4f  
Q: 1/4=216
%%MIDI tuningsystem comma53
c2 d2 e2 e2 e2 e4  | d4 g2 f2 g2 e4  | \
w:  ARANAĞME  |   | 
d4 e2 d2 e2 c4  | B2 c2 d2 c2 d2 B4  | 
w:   |   | 
A4 c2 B2 c2 B2 A2  | G4 c2 B2 d2 B2 A2  | A14  | A14  | \
w:   |   |   |   | 
c2 d2 e2 e2 e2 e4  | d4 g2 f2 g2 e4  | 
w:  ARANAĞME  |   | 
d4 e2 d2 e2 c4  | B2 c2 d2 c2 d2 B4  | \
w:   |   | 
A4 c2 B2 c2 B2 A2  | G4 c2 B2 d2 B2 A2  | 
w:   |   | 
A14  | A14  | A4 g2 f2 g2 g2 f2  | g2 f2 e4 e2 e2 d2  | \
w:   |   |  Yağ mur  *  ya ğar  |  taş  *  üs tü ne    | 
e2 f2 g2 f2 g2 g2 f2  | 
w:  İn *  ce  *  ka lem  | 
g2 f2 e4 e2 e2 d2  | e2 f2 g2 f2 g2 g2 f2  | \
w:  kaş  *  üs tü ne    |  se *  lâm  *  ge lir   | 
g2 f2 e4 e2 e2 d2  | c2 d2 e2 e2 e2 e4  | 
w:  baş *  üs tü ne    |  Vay  *  di li di li   | 
d4 g2 f2 g2 e2 d2  | d4 e2 d2 e2 c4  | \
w:  kuş  di li  di li    |  Mev lâ  *  ku lu   | 
B2 c2 d2 c2 d2 B4  | A4 c2 B2 c2 B2 A2  | 
w:  sev *  dim  *  se ni    |  Vay  di li  di li  | 
G4 c2 B2 d2 B2 A2  | A14  | A14  | c2 d2 e2 e2 e2 e4  | \
w:  kur ban  *  di li   |  hey  |  hey  |  Vay  *  di li di li   | 
d4 g2 f2 g2 e2 d2  | d4 e2 d2 e2 c4  | 
w:  kuş  di li  di li    |  Mev lâ  *  ku lu   | 
B2 c2 d2 c2 d2 B4  | A4 c2 B2 c2 B2 A2  | \
w:  sev *  dim  *  se ni    |  Vay  di li  di li  | 
G4 c2 B2 d2 B2 A2  | A14  | A14  | c2 d2 e2 e2 e2 e4  | 
w:  kur ban  *  di li   |  hey  |  hey  |  ARANAĞME  | 
d4 g2 f2 g2 e4  | d4 e2 d2 e2 c4  | B2 c2 d2 c2 d2 B4  | \
w:   |   |   | 
A4 c2 B2 c2 B2 A2  | 
w:   | 
G4 c2 B2 d2 B2 A2  | A14  | A14  | c2 d2 e2 e2 e2 e4  | \
w:   |   |   |  ARANAĞME  | 
d4 g2 f2 g2 e4  | d4 e2 d2 e2 c4  | 
w:   |   | 
B2 c2 d2 c2 d2 B4  | A4 c2 B2 c2 B2 A2  | \
w:   |   | 
G4 c2 B2 d2 B2 A2  | A14  | A14  | A4 g2 f2 g2 g2 f2  | 
w:   |   |   |  Yağ mur  *  ya ğar  | 
g2 f2 e4 e2 e2 d2  | e2 f2 g2 f2 g2 g2 f2  | \
w:  taş  *  üs tü ne    |  İn *  ce  *  ka lem  | 
g2 f2 e4 e2 e2 d2  | e2 f2 g2 f2 g2 g2 f2  | 
w:  kaş  *  üs tü ne    |  se *  lâm  *  ge lir   | 
g2 f2 e4 e2 e2 d2  | c2 d2 e2 e2 e2 e4  | \
w:  baş *  üs tü ne    |  Vay  *  di li di li   | 
d4 g2 f2 g2 e2 d2  | d4 e2 d2 e2 c4  | 
w:  kuş  di li  di li    |  Mev lâ  *  ku lu   | 
B2 c2 d2 c2 d2 B4  | A4 c2 B2 c2 B2 A2  | \
w:  sev *  dim  *  se ni    |  Vay  di li  di li  | 
G4 c2 B2 d2 B2 A2  | A14  | A14  | c2 d2 e2 e2 e2 e4  | 
w:  kur ban  *  di li   |  hey  |  hey  |  Vay  *  di li di li   | 
d4 g2 f2 g2 e2 d2  | d4 e2 d2 e2 c4  | \
w:  kuş  di li  di li    |  Mev lâ  *  ku lu   | 
B2 c2 d2 c2 d2 B4  | A4 c2 B2 c2 B2 A2  | 
w:  sev *  dim  *  se ni    |  Vay  di li  di li  | 
G4 c2 B2 d2 B2 A2  | A14  | A14  | |


